!!!SOCIAL_FUNCTION:	miscellaneous songs
!!!PDT:	1956
!!!OTL: No_236_Song_to_a_Little_Child.krn
!!!LANG: Non-Tone
!!!LING_GROUP: Muskogean
!!!REG: Florida
**kern
*staff1
=1-
*clefG2
*k[b-e-a-]
*M2/4
(8g/L
8f/J
8e-/L
8B-/J)
=2
4g/
4r
=3
8g/L
8f/J
8e-/L
[8c/J
=4
4.c/]
8r
=5
4g/
12f/L
12e-/
12c/J
=6
4f/
8r
8a-/
=7
8.f/L
16g/Jk
8f/L
8e-/J
=8
4.c/
8r
=9||
*M3/4
8g/L
16f/L
16e-/JJ
4g/
8g/
16r
16a-/
=10
8g/L
24f/K
12e-/J
4c/
4r
==
*-
